packages/Snapp/src/NotificationIcon/index.svg

<?xml version="1.0" encoding="UTF-8"?>
<svg width="24px" height="24px" viewBox="0 0 24 24" version="1.1" xmlns="http://www.w3.org/2000/svg" xmlns:xlink="http://www.w3.org/1999/xlink">
    <title>Icons/24/Notification</title>
    <g id="Icons/24/Notification" stroke="none" stroke-width="1" fill="none" fill-rule="evenodd">
        <rect id="Container" fill-opacity="0" fill="#D8D8D8" fill-rule="nonzero" x="0" y="0" width="24" height="24"></rect>
        <g id="Badge" transform="translate(16.000000, -4.000000)">
            <ellipse id="Oval" fill="#FF4232" fill-rule="nonzero" cx="7" cy="9.5" rx="7" ry="7.38888889"></ellipse>
            <text id="۲" font-family="IRANSansMobile-Medium, IRANSansMobile" font-size="12" font-weight="400" fill="#FFFFFF">
                <tspan x="0" y="10.5">۲</tspan>
            </text>
        </g>
        <path d="M10.5,4.18902623 L10.5,3.5 C10.5,2.67157288 11.1715729,2 12,2 C12.8284271,2 13.5,2.67157288 13.5,3.5 L13.5,4.18902623 C16.0878408,4.85509042 18,7.20424086 18,10 L18,16 L19.2928932,17.2928932 C19.6834175,17.6834175 19.6834175,18.3165825 19.2928932,18.7071068 C19.1053568,18.8946432 18.8510029,19 18.5857864,19 L5.41421356,19 C4.86192881,19 4.41421356,18.5522847 4.41421356,18 C4.41421356,17.7347835 4.5195704,17.4804296 4.70710678,17.2928932 L6,16 L6,10 C6,7.20424086 7.91215918,4.85509042 10.5,4.18902623 Z M8,17 L16,17 L16,10 C16,7.790861 14.209139,6 12,6 C9.790861,6 8,7.790861 8,10 L8,17 Z M10,20 L14,20 C14,21.1045695 13.1045695,22 12,22 C10.8954305,22 10,21.1045695 10,20 Z" id="Shape" fill="#404040" fill-rule="nonzero"></path>
    </g>
</svg>

<svg viewBox="0 0 24 24" xmlns="http://www.w3.org/2000/svg" fill="currentColor" focusable="false">
  <g fill-rule="evenodd">
    <g transform="translate(16 -4)">
      <ellipse fill="#FF4232" fill-rule="nonzero" cx="7" cy="9.5" rx="7" ry="7.389"/>
      <text font-family="IRANSansMobile-Medium, IRANSansMobile" font-size="12" font-weight="400" fill="#FFF">
        <tspan x="0" y="10.5">۲</tspan>
      </text>
    </g>
    <path d="M10.5 4.189V3.5a1.5 1.5 0 013 0v.689A6.003 6.003 0 0118 10v6l1.293 1.293A1 1 0 0118.586 19H5.414a1 1 0 01-.707-1.707L6 16v-6a6.003 6.003 0 014.5-5.811zM8 17h8v-7a4 4 0 10-8 0v7zm2 3h4a2 2 0 11-4 0z"/>
  </g>
</svg>
